icon_installer/data/icons/scalable/actions/show-edit-select-none-symbolic.svg

<?xml version="1.0" encoding="UTF-8"?>
<svg height="16px" viewBox="0 0 16 16" width="16px" xmlns="http://www.w3.org/2000/svg">
    <path d="m 0 0 v 1.0625 l 1.9375 1.9375 h 1.0625 v -3 z m 4 0 v 2 h 3 v -2 z m 4 0 v 2 h 4 v -2 z m 5 0 v 3 h 3 v -3 z m -13 4 v 4 h 2 v -2.8125 l -1.1875 -1.1875 z m 14 0 v 3 h 2 v -3 z m 0 4 v 4 h 2 v -4 z m -14 1 v 3 h 2 v -3 z m 0 4 v 3 h 3 v -3 z m 13 0 v 1.0625 l 1.9375 1.9375 h 1.0625 v -3 z m -9 1 v 2 h 4 v -2 z m 5 0 v 2 h 3 v -0.8125 l -1.1875 -1.1875 z m 0 0" fill="#2e3436" fill-opacity="0.34902"/>
    <path d="m 1.53125 0.46875 l -1.0625 1.0625 l 14 14 l 1.0625 -1.0625 z m 0 0" fill="#222222"/>
</svg>

<svg xmlns="http://www.w3.org/2000/svg" width="16" height="16"><path fill="#2e3436" fill-opacity=".349" d="M0 0v1.063L1.938 3H3V0zm4 0v2h3V0zm4 0v2h4V0zm5 0v3h3V0zM0 4v4h2V5.187L.812 4zm14 0v3h2V4zm0 4v4h2V8zM0 9v3h2V9zm0 4v3h3v-3zm13 0v1.063L14.938 16H16v-3zm-9 1v2h4v-2zm5 0v2h3v-.813L10.812 14zm0 0"/><path fill="#222" d="M1.531.469.47 1.53l14 14 1.062-1.062zm0 0"/></svg>
